X:1851
T:Bourrée
R:Bourrée
C:trad
S:Raymond Berg
A:Morvan
O:France
Z:S Piron
M:3/8
L:1/8
Q:1/4=110
K:C
G|c>B A|G2c|B/2c/2df|ecG|c>B A|G2c|B/2c/2dB|c2:|
|:e/2f/2|g>fe|g2f|dfd|ece/2f/2|g>fe|g2f|dfe|c2:||


